X: 391
T: Jiaocheng shan
%%abc-version 2.0
%%abcx-abcm2ps-target-version 5.9.1 (29 Sep 2008)
%%abc-creator hum2abc beta
%%abcx-conversion-date 2013/10/02 07:52:30
%%abc-edited-by Helmut Schaffrath
%%humdrum-veritas 1728563743
%%humdrum-veritas-data 2840348742
%%continueall 1
%%barnumbers 0
L: 1/8
M: 2/4
K: F
c2B A [I:setbarnb 1]| 
d AG2 | 
c G A c | 
c F E D | 
c E G A | 
c F E D | 
C> D G F | 
C4 |]  



